X:1
T:Ave Dulcissima
T:Giovanni Priuli
T:Source : Ghirlanda Sacra---Venetia---Ang.Gardano (B.Magni)---1625. Editor : André Vierendeels (21/12/16).
T:Notes : Original clefs : C1, F4 Figures in BC are notated in original print Music collected by Leonarde Simonetti
T:Ave Dulcissima Maria
T:©
T:©
T:©
T:©
T:©
T:©
C:Giovanni Priuli
Z:©
%%score 1 2
L:1/8
Q:1/4=120
M:4/4
K:C
V:1 treble nm="Soprano" snm="S"
V:2 bass nm="BC"
V:1
 z8 | d8- | d8 | A8- | A4 _B4 | F6 F2 | F4 G4 | A8- | A8 | A8 | z8 | z4 d4- | d2 d2 c4 | B6 B2 | %14
w: |A-||ve|_ Dul-|cis- si-|ma Ma-|ri-||a,||ve-|* ra spes|u- ni-|
 A8 | F/E/D/E/ F/G/A/B/ c/_B/A/B/ A/G/A/F/ | G8- | G8 | G8 | z8 | z4 G4- | ^G4 A4 | %22
w: ca|et _ _ _ _ _ _ _ _ _ _ _ _ _ _ _|vi-||ta||dul-|* ce|
 FE/F/ G/A/B/c/ d4- | d4 c<B d<c | B6 B2 | A4 D/C/D/E/ D/E/D/E/ | %26
w: re- * * * * * * *|* fri- * * *|ge- ri-|um et _ _ _ _ _ _ _|
 F/E/F/G/ F/G/F/G/ A/G/A/B/ A/B/A/B/ | c6 G2 | G/A/B/G/ A/^F/G/A/ B/c/d/B/ c/A/B/c/ | %29
w: _ _ _ _ _ _ _ _ _ _ _ _ _ _ _ _|so- *|la- * * * * * * * * * * * * * * *|
 dc/A/ B/c/^F/G/ A3 A | G8 | z8 | z4 A4- | A4 B4 | c8 | B8 | z4 B4- | B4 ^c4 | d8 | %39
w: * * * * * * * * ti-|um,||O|_ Ma-|ri-|a,|O|_ Ma-|ri-|
 ^c2 d2 _B<A c<B | A6 A2 | G8 | z GAB c4 | AABc d4 | B2 c3 c A2 | _B8 | A8 | z4 d4- | d4 ^c4 | %49
w: a, flos Vir- * * *|* gi-|num,|ad te cla- ma-|mus, ad te cla- ma-|mus, Fi- li- i|E-|vae,|O|_ Ma-|
 e8- | e4 B2 c2 | d2- d3 c/B/ A/c/B | A6 A2 | G8 | z GAB c4 | AABc d4 | B2 c3 c A2 | _B8 | A8 | %59
w: ri-|* a, flos|Vir- * * * * * *|* gi-|num,|ad te cla- ma|mus, ad te cla- ma-|mus fi- li- i|E-|vae,|
 z4 d4- | d2 A2 c4- | c4 _B4 | A8 | G8 | D2 E2 F2 G2 | A8- | A8 | A8 | z8 | d8- | d4 A4 | c8- | %72
w: do-|* na no-|* bis|pa-|cem,|do- na no- bis|pa-||cem,||do-|* na|no-|
 c4 _B4 | A8- | A8 | G8 |] %76
w: * bis|pa-||cem.|
V:2
 G,,8- | G,,8 | D,,8 | D,8- | D,4 G,,4 | D,6 D,2 | D,4 _B,,4 | A,,8- | A,,8 | D,,4 D,4- | %10
 D,2 C,2 C,4 | B,,6 B,,2 | A,,8 | E,8 | A,,8 | D,4 C,4- | C,4 B,,2 A,,2 | G,,8 | C,4 C,4 | %19
 A,,4 D,4 | C,4 C,4 | E,4 A,,4 | D,8 | E,8- | E,8 | A,,4 _B,,4- | B,,4 A,,4 | A,,4 E,,4 | G,,8 | %29
 D,8 | G,,4 C,4- | C,4 B,,4 | A,,8- | A,,4 ^G,,4 | A,,8 | E,8 | z4 E,4- | E,4 A,,4 | D,8 | %39
 A,,2 ^F,,2 G,,4 | D,8 | G,,4 z G,,A,,B,, | C,4 A,,A,,B,,C, | D,4 B,,B,,C,D, | %44
"^#" E,2 A,,3 A,, D,2 |"^b" G,,8 |"^#" D,8 | D,8 | A,,8 | ^G,,4 A,,4 | E,8 | B,,4 C,4 | D,8 | %53
 G,,4 z G,,A,,B,, | C,4 A,,A,,B,,C, | D,4 B,,B,,C,D, | E,2 A,,3 A,, D,2 |"^b" G,,8 |"^#" D,8 | %59
 _B,,2 C,2 D,2 E,2 | F,4 E,4 | D,8- | D,8 | G,,4 G,,2 A,,2 | _B,,2 C,2 D,2 E,2 | F,8 | %66
 D,,2 E,,2 F,,2 G,,2 | A,,8 | D,2 E,2 F,2 G,2 | G,4 G,,2 A,,2 | _B,,2 C,2 D,2 E,2 | F,2 D,2 z4 | %72
 F,2 D,2 _E,2 C,2 | D,8- | D,8 | G,,8 |] %76

